X:277
T: ICH WEISS EIN STOLZE MUELLERIN
N: E0155
O: Europa, Mitteleuropa, Deutschland
R: erzaehlendes Volks - Lied, Scherz, Schwank, Spott auf den Klerus
M: 4/4
L: 1/8
K: C
C2 | C2E2D2C2 | B,2B,2A,2
B,2 | C2G,2A,2B,2 | C6
C2 | C2E2D2C2 | B,2B,2A,2
B,2 | C2G,2A,2B,2 | C3DE2
C2 | D3CB,2A,2 | G,4z2
B,2 | C2B,2C2A,2 | G,4E,2
C2 | C2C2D2D2 | E4D2
F2 | E2C2D2D2 | C6

